X: 533
T: Abbey, The
R: reel
M: 4/4
K: Adorian
B|A3B A2GE|A2GA BddB|A3B AGEF|G3A BddB|
A3B A2GE|A2GA BddB|A3B AGEF|G3A Bddg||
eg g2 a2ba|gabg aged|eg g2 a2ga|bgaf gedg|
eg g2 agbg|agbg aged|eggb a2ga|bgaf gedB||

